X:1
T:Inspiration*
T:D Major            Jacob French, 1789
T:Transcribed from The New American Melody, 1789.
T:Isaac Watts, 1709 (Hymn 151, Book 2)           88. 88. (L. M.)
%%score [ 1 2 3 4 ]
L:1/8
Q:1/4=140
M:3/2
K:D
V:1 treble nm="Tr." snm="Tr."
V:2 treble nm="C." snm="C."
V:3 treble-8 nm="T." snm="T."
V:4 bass nm="B." snm="B."
V:1
 A4 | d8 d4 | B8 e4 | (d3 c B4) A4 | A8 A4 | A8 d4 | d8 D4 | (F2 G2 A4) ^G4 | A8 A4 | ^G8 A4 | %10
 A8 (d2 c2) | (B4 A2 G2) F4 | A8 c4 | (B3 c d2 cd e2) A2 | %14
"_hearts with hea      –     venly    fire.    The works and wonders which they wrought Confirmed the messages  they    brought;" A8 d4 | %15
 (d3 c B4) A4 | A12 |[M:2/2] z4 A4 | A2 A2 A2 A2 | A4 A4 | F6 A2 | A2 B2 c2 A2 | (G2 A2 B2) ^G2 | %23
 A8 |: z8 | z8 | z8 | %27
 z4 z2"_The prophet's pen succeeds his breath, To   save  the  ho – ly    words  from  death." A2 | %28
 B2 B2 d2 d2 | c2 c2 c2 c2 | d2 A2 B2 B2 | A6 A2 | A8 ::[M:6/8][Q:1/4=60] A3 FA A | dA B A2 A | %35
 A2 A/G/ F2 G | A2 A dA B/c/ | d3- d2 d | dc B AB A | dA B A2 A | A2 d dc B |1 A2 A A3 :|2 %42
 A2 A A3- | A6 |] %44
V:2
"_Twas by an   order      from                the Lord The ancient       prophets spoke        his word; His  Spirit  did  their      tongues    in – spire, And warmed                 their" D4 | %1
 F8 F4 | E8 E4 | (3(D2 F2 A2 G2 F2) E4 | F8 F4 | E8 (D3 E) | F8 G4 | (A2 G2 F4) E4 | E8 F4 | %9
 E8 E4 | F8 F4 | (D2 E2 F2 G2) A4 | A8 A4 | (F4 G2 A2 G2) F2 | %14
"_hearts with hea      –     venly    fire.    The works and wonders which they wrought Confirmed the messages  they    brought;                                                                The" E8 D4 | %15
 (A2 F2 G2 F2) E4 | F12 |[M:2/2] z4 D4 | F2 F2 E2 E2 | F4 E4 | D6 E2 | F2 F2 G2 F2 | E4 E4 | E8 |: %24
 z8 | z8 | z4 z2 E2 | %27
"_pro      –      phet's pen succeeds  his   breath,         To    save  the  ho – ly  words  from  death." (F2 E4) D2 | %28
 G2 G2 A2 A2 | A6 A2 | A2 F2 G2 F2 | E6 E2 | F8 ::[M:6/8] F3 DF F | D2 E [A,F]2 D | C2 D D2 E | %36
"_vo – lume   of         thy      book;     There   my       Re – dee – mer's  face       I      see,  And  read   his  name  who  died  for  me.       died  for  me.""_va –  nish    in         the       wind;     Here     I         can    fix     my     hope     se –cure;  This    is     thy  word,  and  must en–dure.      must en–dure." F2 E D2 E | %37
 F3- F2 F | F2 E DG E | D2 E D2 E | F2 [DF] [DF]2 E |1 D2 [CE] [DF]3 :|2 D2 [CE] [DF]3- | [DF]6 |] %44
V:3
 A4 | A8 F4 | G8 B4 | (A4 B4) c4 | d8 d4 | c8 B4 | A8 B4 | (c4 d2 c2) B4 | A8 d4 | B8 c4 | d8 A4 | %11
 (B4 c4) d4 | e8 A4 | (d3 c B2 A2 Bc) d2 | %14
"_hearts with hea      –     venly    fire.    The works and wonders which they wrought Confirmed the messages  they    brought;                                    The   pro     –    phet's" c8 B4 | %15
 (A4 B4) c4 | d12 |[M:2/2] z4 A4 | d2 d2 e2 c2 | d4 c4 | B6 c2 | d2 d2 e2 d2 | c4 B4 | A8 |: z8 | %25
 z4 z2 A2 | (d3 e d2) c2 | %27
"_pen                suc – ceeds    his           breath,          To  save  the   ho – ly   words   from  death.               Great   God, mine eyes   with  plea – sure   look   On   the  dear" (B3 c B2) A2 | %28
 d4 f4 | e6 e2 | f2 d2 e2 d2 | c6 c2 | d8 :: %33
[M:6/8]"_Let        the    false  rap – tures   of        the  mind   Be   lost,  and" d3 Ad c | %34
 BA G FD F | E2 F/G/ A2 B/c/ | d2 c BA ^G | A3- A2 A | AF G Ad c | BA ^G A2 B/c/ | d2 A D2 G |1 %41
 F2 E D3 :|2 F2 E D3- | D6 |] %44
V:4
 D,4 | D,8 D,4 | E,8 E,4 | (F,4 G,4) A,4 | D,8 D,4 | A,,8 (B,,3 C,) | D,8 G,4 | (F,2 E,2 D,4) E,4 | %8
 A,,8 D,4 | E,8 A,,4 | D,8 F,4 | (G,4 F,2 E,2) D,4 | A,8 F,4 | (B,3 A, G,2 F,2 E,2) D,2 | %14
"_hearts with hea      –     venly    fire.    The works and wonders which they wrought Confirmed the messages  they    brought;          The   pro     –    phet's  pen           suc–" A,8 G,4 | %15
 (F,2 D,2 G,4) A,4 | D,12 |[M:2/2] z4 D,4 | D,2 D,2 [A,,A,]2 [A,,A,]2 | D,4 A,,4 | B,,6 A,,2 | %21
 D,2 D,2 C,2 D,2 | E,4 E,4 | A,,8 |: z4 A,,4 | (D,3 E, D,2) C,2 | (B,,3 C, B,,2) A,,2 | %27
"_– ceeds            his     breath,                                       To   save  the  ho – ly    words   from  death." (D,2 E,4) F,2 | %28
 (G,4 F,2 D,2 | A,6) [A,,A,]2 | D,2 D,2 [G,,G,]2 [G,,G,]2 | [A,,A,]6 A,,2 | D,8 :: %33
[M:6/8] D,3 D,2 F, | G,F, E, D,2 D, | A,,2 D,/E,/ F,2 E, | D,2 E,/F,/ G,F, E, | %37
"________________________________________________________________\nEdited by B. C. Johnston, 2018\n   *Title changed from Britain, and these words substituted for original words." D,3- D,2 D, | %38
 D,2 E, F,G, A, | G,F, E, F,2 E, | D,2 D, F,2 G, |1 A,2 A,, D,3 :|2 A,2 A,, D,3- | D,6 |] %44

